X:178
T: Pointe au Pic
M: 4/4
K: C
P:A
gec| "C"d2c2 B2A2 |G4-Ggec|"C"d2cc cBAc |"G7"B4-BABc |
"Dm"d2cc cBAc |"G"B4-Bg^fg |"G"ag^fg "G7(5)"agec |  "C"G4-"G7"Ggec |
"C"d2c2 B2A2 |G4-GcBc | "C"c2Bc "C7"dcBc | "F"A A2 A-A2 AB |
"F"c2Bc "F#"d2cd | "C/G"eceg "A7"a2>e2 | "Dm"g2f2 "G7"A2B2| "C"c4 c2B2 ||
P:B
"Am"A3B c3d | ea2a aga2 | eaab ageg |agab agec|   
"G"G3A B3d |gg g2-gdBd| g2 ga gdBd | g^fga gedB|
"Am"A3B c3d|ea2a aga2 |eaab ageg |"Am"agab "F"agab|
"F#"c'4 "C/G"c'2 ef | "Am"g2ga gecd | "Dm"egec "G7"dedB | "C"c4 -c"(G7)" |]
